X:1
T:Girl that Broke My Heart, The
R:reel
C:Syracuse session setting
M:C
K:Gdor
A|B2 AG FDCF|DGG^F GABc|d2 dd cAGF|DFFE FAdc|
B2 AG FDCF|DGG^F GABc|defd cAGF|1 DGG^F G3:|2 DGG^F GDE|]
K:Gmix
^F|G2Bd gdBG|F2Ac fcAF|G2Bd gdBd|c2 cd cA^FA|
G2Bd gdBG|F2Ac fcAF|GABd cAGF|1 DGG^F GDE:|2 DGG^F G3|]
</abc>
<abc>
